!!!SOCIAL_FUNCTION:	songs with hunting dance
!!!PDT:	1956
!!!OTL: No_56_Cow_Creek_Hunting_Dance_Song_(w).krn
!!!LANG: Non-Tone
!!!LING_GROUP: Muskogean
!!!REG: Florida
**kern
*staff1
=1-
*clefF4
*k[b-e-]
*M3/4
8.G\L
16B-\Jk
4B-\
4r
=2||
*M2/4
8.G\L
16B-\Jk
4B-\
=3
8.c\L
16B-\Jk
8G\L
16F\Jk
16r
=4
12F\L
12F\
12F\J
4F\
=5
16G\LK
8.F\J
16G\LK
8.F\J
=6
16G\LK
8.F\J
16D\LK
8.F\J
=7
16G\LK
8F\
16D\Jk
4F\
=8
16G\LK
8F\
16D\Jk
4F\
=9
8.G\L
16B-\Jk
4B-\
=10
8.G\L
16B-\Jk
4B-\
=11
8.c\L
16B-\Jk
8G\L
16F\Jk
16r
=12
12F\L
12F\
12F\J
4F\
==
*-
